client/assets/images/appLogo.svg

<?xml version="1.0" encoding="UTF-8" standalone="no"?>
<!-- Generator: Adobe Illustrator 19.0.0, SVG Export Plug-In . SVG Version: 6.00 Build 0)  -->

<svg
   xmlns:dc="http://purl.org/dc/elements/1.1/"
   xmlns:cc="http://creativecommons.org/ns#"
   xmlns:rdf="http://www.w3.org/1999/02/22-rdf-syntax-ns#"
   xmlns:svg="http://www.w3.org/2000/svg"
   xmlns="http://www.w3.org/2000/svg"
   xmlns:sodipodi="http://sodipodi.sourceforge.net/DTD/sodipodi-0.dtd"
   xmlns:inkscape="http://www.inkscape.org/namespaces/inkscape"
   version="1.1"
   id="Capa_1"
   x="0px"
   y="0px"
   viewBox="0 0 294.842 294.842"
   style="enable-background:new 0 0 294.842 294.842;"
   xml:space="preserve"
   inkscape:version="0.91 r13725"
   sodipodi:docname="appLogo.svg"><metadata
     id="metadata53"><rdf:RDF><cc:Work
         rdf:about=""><dc:format>image/svg+xml</dc:format><dc:type
           rdf:resource="http://purl.org/dc/dcmitype/StillImage" /></cc:Work></rdf:RDF></metadata><defs
     id="defs51" /><sodipodi:namedview
     pagecolor="#ffffff"
     bordercolor="#666666"
     borderopacity="1"
     objecttolerance="10"
     gridtolerance="10"
     guidetolerance="10"
     inkscape:pageopacity="0"
     inkscape:pageshadow="2"
     inkscape:window-width="1920"
     inkscape:window-height="1016"
     id="namedview49"
     showgrid="false"
     inkscape:zoom="2.2639542"
     inkscape:cx="131.18506"
     inkscape:cy="149.43253"
     inkscape:window-x="0"
     inkscape:window-y="27"
     inkscape:window-maximized="1"
     inkscape:current-layer="Capa_1" /><g
     id="g3"
     transform="matrix(0.57603554,0,0,0.57603554,62.50127,62.50127)"><path
       d="m 6,294.842 282.842,0 c 3.313,0 6,-2.687 6,-6 L 294.842,6 c 0,-3.313 -2.687,-6 -6,-6 L 48.421,0 c -3.313,0 -6,2.687 -6,6 0,3.313 2.687,6 6,6 l 234.421,0 0,270.842 L 12,282.842 12,6 C 12,2.687 9.313,0 6,0 2.687,0 0,2.687 0,6 l 0,282.842 c 0,3.313 2.687,6 6,6 z"
       id="path5"
       inkscape:connector-curvature="0" /><path
       d="m 65.815,62.421 c -12.683,0 -23,10.317 -23,23 0,12.683 10.317,23 23,23 12.683,0 23,-10.317 23,-23 0,-12.683 -10.317,-23 -23,-23 z m 0,34 c -6.065,0 -11,-4.935 -11,-11 0,-6.065 4.935,-11 11,-11 6.065,0 11,4.935 11,11 0,6.065 -4.934,11 -11,11 z"
       id="path7"
       inkscape:connector-curvature="0" /><path
       d="m 246.815,79.421 -140,0 c -3.313,0 -6,2.687 -6,6 0,3.313 2.687,6 6,6 l 140,0 c 3.313,0 6,-2.687 6,-6 0,-3.313 -2.686,-6 -6,-6 z"
       id="path9"
       inkscape:connector-curvature="0" /><path
       d="m 246.815,141.421 -140,0 c -3.313,0 -6,2.687 -6,6 0,3.313 2.687,6 6,6 l 140,0 c 3.313,0 6,-2.687 6,-6 0,-3.313 -2.686,-6 -6,-6 z"
       id="path13"
       inkscape:connector-curvature="0" /><path
       d="m 65.815,186.421 c -12.683,0 -23,10.317 -23,23 0,12.683 10.317,23 23,23 12.683,0 23,-10.317 23,-23 0,-12.683 -10.317,-23 -23,-23 z m 0,34 c -6.065,0 -11,-4.935 -11,-11 0,-6.065 4.935,-11 11,-11 6.065,0 11,4.935 11,11 0,6.065 -4.934,11 -11,11 z"
       id="path15"
       inkscape:connector-curvature="0" /><path
       d="m 246.815,203.421 -140,0 c -3.313,0 -6,2.687 -6,6 0,3.313 2.687,6 6,6 l 140,0 c 3.313,0 6,-2.687 6,-6 0,-3.313 -2.686,-6 -6,-6 z"
       id="path17"
       inkscape:connector-curvature="0" /><path
       inkscape:connector-curvature="0"
       d="m 66.697463,124.75423 c -12.683,0 -23,10.317 -23,23 0,12.683 10.317,23 23,23 12.683004,0 23.000004,-10.317 23.000004,-23 0,-12.683 -10.317,-23 -23.000004,-23 z m 0,34 c -6.065,0 -11,-4.935 -11,-11 0,-6.065 4.935,-11 11,-11 6.065,0 11.000004,4.935 11.000004,11 0,6.065 -4.934004,11 -11.000004,11 z"
       id="path7-1" /></g><g
     id="g19" /><g
     id="g21" /><g
     id="g23" /><g
     id="g25" /><g
     id="g27" /><g
     id="g29" /><g
     id="g31" /><g
     id="g33" /><g
     id="g35" /><g
     id="g37" /><g
     id="g39" /><g
     id="g41" /><g
     id="g43" /><g
     id="g45" /><g
     id="g47" /><rect
     style="fill:#0000ff;fill-rule:evenodd;stroke:#000000;stroke-width:1px;stroke-linecap:butt;stroke-linejoin:miter;stroke-opacity:1;opacity:0"
     id="rect3383"
     width="24.293781"
     height="19.876715"
     x="182.86589"
     y="171.60631" /></svg>

<?xml version="1.0" encoding="UTF-8" standalone="no"?>
<!-- Generator: Adobe Illustrator 19.0.0, SVG Export Plug-In . SVG Version: 6.00 Build 0)  -->

<svg
   xmlns:dc="http://purl.org/dc/elements/1.1/"
   xmlns:cc="http://creativecommons.org/ns#"
   xmlns:rdf="http://www.w3.org/1999/02/22-rdf-syntax-ns#"
   xmlns:svg="http://www.w3.org/2000/svg"
   xmlns="http://www.w3.org/2000/svg"
   xmlns:sodipodi="http://sodipodi.sourceforge.net/DTD/sodipodi-0.dtd"
   xmlns:inkscape="http://www.inkscape.org/namespaces/inkscape"
   version="1.1"
   id="Capa_1"
   x="0px"
   y="0px"
   viewBox="0 0 294.842 294.842"
   style="enable-background:new 0 0 294.842 294.842;"
   xml:space="preserve"
   inkscape:version="0.91 r13725"
   sodipodi:docname="appLogo.svg"><metadata
     id="metadata53"><rdf:RDF><cc:Work
         rdf:about=""><dc:format>image/svg+xml</dc:format><dc:type
           rdf:resource="http://purl.org/dc/dcmitype/StillImage" /></cc:Work></rdf:RDF></metadata><defs
     id="defs51" /><sodipodi:namedview
     pagecolor="#ffffff"
     bordercolor="#666666"
     borderopacity="1"
     objecttolerance="10"
     gridtolerance="10"
     guidetolerance="10"
     inkscape:pageopacity="0"
     inkscape:pageshadow="2"
     inkscape:window-width="1920"
     inkscape:window-height="1016"
     id="namedview49"
     showgrid="false"
     inkscape:zoom="2.2639542"
     inkscape:cx="131.62677"
     inkscape:cy="131.76433"
     inkscape:window-x="0"
     inkscape:window-y="27"
     inkscape:window-maximized="1"
     inkscape:current-layer="Capa_1" /><g
     id="g3"><path
       d="m 6,294.842 282.842,0 c 3.313,0 6,-2.687 6,-6 L 294.842,6 c 0,-3.313 -2.687,-6 -6,-6 L 48.421,0 c -3.313,0 -6,2.687 -6,6 0,3.313 2.687,6 6,6 l 234.421,0 0,270.842 L 12,282.842 12,6 C 12,2.687 9.313,0 6,0 2.687,0 0,2.687 0,6 l 0,282.842 c 0,3.313 2.687,6 6,6 z"
       id="path5"
       inkscape:connector-curvature="0" /><path
       d="M65.815,62.421c-12.683,0-23,10.317-23,23s10.317,23,23,23s23-10.317,23-23S78.498,62.421,65.815,62.421z M65.815,96.421   c-6.065,0-11-4.935-11-11s4.935-11,11-11s11,4.935,11,11S71.881,96.421,65.815,96.421z"
       id="path7" /><path
       d="M246.815,79.421h-140c-3.313,0-6,2.687-6,6s2.687,6,6,6h140c3.313,0,6-2.687,6-6S250.129,79.421,246.815,79.421z"
       id="path9" /><path
       d="M246.815,141.421h-140c-3.313,0-6,2.687-6,6s2.687,6,6,6h140c3.313,0,6-2.687,6-6S250.129,141.421,246.815,141.421z"
       id="path13" /><path
       d="M65.815,186.421c-12.683,0-23,10.317-23,23s10.317,23,23,23s23-10.317,23-23S78.498,186.421,65.815,186.421z    M65.815,220.421c-6.065,0-11-4.935-11-11s4.935-11,11-11s11,4.935,11,11S71.881,220.421,65.815,220.421z"
       id="path15" /><path
       d="M246.815,203.421h-140c-3.313,0-6,2.687-6,6s2.687,6,6,6h140c3.313,0,6-2.687,6-6S250.129,203.421,246.815,203.421z"
       id="path17" /><path
       inkscape:connector-curvature="0"
       d="m 66.697463,124.75423 c -12.683,0 -23,10.317 -23,23 0,12.683 10.317,23 23,23 12.683004,0 23.000004,-10.317 23.000004,-23 0,-12.683 -10.317,-23 -23.000004,-23 z m 0,34 c -6.065,0 -11,-4.935 -11,-11 0,-6.065 4.935,-11 11,-11 6.065,0 11.000004,4.935 11.000004,11 0,6.065 -4.934004,11 -11.000004,11 z"
       id="path7-1" /></g><g
     id="g19" /><g
     id="g21" /><g
     id="g23" /><g
     id="g25" /><g
     id="g27" /><g
     id="g29" /><g
     id="g31" /><g
     id="g33" /><g
     id="g35" /><g
     id="g37" /><g
     id="g39" /><g
     id="g41" /><g
     id="g43" /><g
     id="g45" /><g
     id="g47" /><rect
     style="fill:#0000ff;fill-rule:evenodd;stroke:#000000;stroke-width:1px;stroke-linecap:butt;stroke-linejoin:miter;stroke-opacity:1;opacity:0"
     id="rect3383"
     width="24.293781"
     height="19.876715"
     x="182.86589"
     y="171.60631" /></svg>
